X: 7491
T: Coalminer's, The
R: reel
M: 4/4
K: Gmajor
DGBG A2AB|dedB AGEG|DGBG AGBd|gedB AGEG|
DGBG AGAB|dedB AGEG|DGBG AGBd|1 gedB G3E:|2 gedB G2ef||
~g3e dege|dedB AGEG|gfge dega|bagb a2ga|
b2gb abge|dedB AGEG|DGBG AGBd|1 gedB G2 (3def:|2 gedB G3E||

